X:560
T:Ore Boggy
C:Neal, 1726
L:1/4
M:2/2
S:Colin Hume's website,  colinhume.com  - chords can also be printed below the stave.
Q:1/2=115
K:Am
P:A
|: "C"c2 "/"eg | "C"c2 "/"eg | "Am"cc "/"d/c/B/A/ | "G"BG "/"GB |\
"Dm"Ad "A7"d^c | "Dm"d3/^c/ "/"de | "F"fe "Dm"f/e/d/c/ | "Am"A2 "/"A2 :|
P:B
|: "C"cc "/"d/c/B/A/ | "G"BG "/"GA/B/ | "C"cc "/"d/c/B/A/ | "G"G2 "/"G2 |\
"Dm"Ad "A7"d^c | "Dm"de "/"fg | "F"fe "/"f/e/d/c/ | "Am"A2 "/"A2 :|

